X:167
T:Behind The Bush In The Garden. HSJJ.169
M:6/8
L:1/8
Q:3/8=115
S:HSJ Jackson,Wyresdale,Lancs.1823
R:.Jig
O:England
A:Lancashire
H:1823
Z:vmp.Chris Partington.
K:G
d/-c/|”_key of D in MS”B2G (B/c/d)B|A2F (A/B/c)A|\
B2G (B/c/d)B|d3g2d/-c/|!
B2G (B/c/d)B|A2G FED|G2c (B/c/d)B|G3G2:|!
|:e/f/|gag fgf|e2dB3|gagf2g|a3d2c/B/|!
c2aB2g|ABG FED|GAB cAF|G3G2:|

